X: 245
T: Kerry Reel
%R: reel
Z: 2014 John Chambers <jc:trillian.mit.edu>
B: Preston "Twenty four Country Dances for the Year 1794" p.103 #1
F: http://www.vwml.org/browse/browse-collections-dance-tune-books/browse-prestons1794# 2014-8-10
M: C|
L: 1/8
K: A
|:\
e/e/e cA E>FEA | Bcde fgaf |\
ecBA EABA | EABc A/A/AA2 :|
|:\
eA (c/B/A) fgaf | eA (c/B/A) fBB2 |\
eA (c/B/A) fgaf | ecdB A/A/AA2 :|
|:\
e>fea f>gfa | bBBc edcB |\
AAGF EDCB, | A,A Bc A/A/AA2 :|
% - - - - - - - - - - - - - - - - - - - - - - - - -
%%begintext align
%% Foot it & change sides .| Foot it & change sides
%% back again :| Lead down the middle up again :|.
%% Allemande :|: Swing Corners :||
%%endtext
% - - - - - - - - - - - - - - - - - - - - - - - - -

%%sep 1 1 500
%%sep 1 1 500
